X:1
T:Title
%%score { ( 1 3 ) | ( 2 4 ) }
L:1/8
Q:1/4=104
M:4/4
K:D
V:1 treble nm="Grand Piano"
V:3 treble 
V:2 bass 
V:4 bass 
V:1
 [FA]3 [GB] [FA]2 [DF]2 | [FA]2 [Fd]2 [FA]4 | B2 A2 [Gc]2 [Fd]2 | [DF]3 [EG] [CE]4 | %4
w: John~R.~Sweney * * *||||
 [DF]3 [DF] [DB]3 [DB] | [Fd]2 [Ec]2 [DB]4 | [Ec]3 [Ae] [Ae]2 [Fd]2 | z4 A4 | z4 z2 .B2 | %9
w: |||||
 [Fd]2 [Gd]2 [Fd]4 | B3 B B2 cd | z4 e4 | [Fd]3 [Af] [Fd]2 [FA]2 | [GB]2 [Gd]2 [DFA]4 | %14
w: |||||
 DEFG A2 [Fd]2 | [Ge]2 [Ec]2 [Fd]4 |] %16
w: ||
V:2
 [D,D]3 [D,D] [D,D]2 [D,A,]2 | [D,D]2 [D,A,]2 [D,D]4 | [G,D]2 [F,A,D]2 [E,A,]2 [D,A,]2 | %3
 [A,,A,]3 [A,,A,] [A,,A,]4 | [D,A,]3 [D,A,] [B,,B,]3 [B,,B,] | [F,B,]2 [F,^A,]2 [B,,B,]4 | %6
 [E,A,]3 [C,A,] [C,A,]2 [D,A,]2 | [E,A,E]2 [E,^G,D]2 [A,C]4 | [F,A,D]3 [F,A,D] [E,C]2 [E,A,]2 | %9
 [D,A,]2 [D,B,]2 [D,A,]4 | [G,D]3 [G,D] [E,^G,E]2 A,B, | z4[K:treble] A2 z2 | %12
 [D,D]3 [D,D] [D,A,]2 [D,D]2 | [D,D]2 [D,B,]2 D,4 | D,E,F,G, A,2 [D,A,]2 | %15
 [A,,A,]2 [A,,A,]2 [D,A,]4 |] %16
V:3
 x8 | x8 | x8 | x8 | x8 | x8 | x8 | c2 B2 z2 G,2 | A3 A [GA]2 G-[Gc] | x8 | x8 | e2 [^Ge]2 z2 =G2 | %12
 x8 | x8 | x8 | x8 |] %16
V:4
 x8 | x8 | x8 | x8 | x8 | x8 | x8 | x8 | x8 | x8 | z4 z2 [E,E]2 | %11
 [E,CE]2 [E,B,]2[K:treble] [A,C]4 | x8 | x8 | x8 | x8 |] %16

